src/assets/pen.svg

<svg width="18" height="19" viewBox="0 0 18 19" fill="none" xmlns="http://www.w3.org/2000/svg">
<g id="pen">
<path id="Stroke 1 (Stroke)" fill-rule="evenodd" clip-rule="evenodd" d="M12.3788 2.4083C12.8196 1.96742 13.5333 1.96742 13.9742 2.4083L16.6718 5.10595C17.1127 5.54683 17.1127 6.2605 16.6718 6.70139L7.67596 15.6973C7.59335 15.7799 7.48616 15.8335 7.37049 15.85L3.25285 16.4382C3.08459 16.4623 2.91483 16.4057 2.79464 16.2855C2.67446 16.1653 2.61787 15.9956 2.64191 15.8273L3.23014 11.7097C3.24667 11.594 3.30026 11.4868 3.38288 11.4042L12.3788 2.4083ZM13.2105 3.17197C13.1914 3.15286 13.1616 3.15286 13.1424 3.17197L4.27383 12.0406L3.81288 15.2673L7.03957 14.8063L15.9082 5.93771C15.9273 5.91859 15.9273 5.88874 15.9082 5.86962L13.2105 3.17197Z" fill="#9FA6B2"/>
<path id="Stroke 3 (Stroke)" fill-rule="evenodd" clip-rule="evenodd" d="M15.3229 3.75704C15.5338 3.96792 15.5338 4.30983 15.3229 4.52071L8.26412 11.5795C8.05324 11.7904 7.71133 11.7904 7.50045 11.5795C7.28956 11.3687 7.28956 11.0267 7.50045 10.8159L14.5593 3.75704C14.7702 3.54616 15.1121 3.54616 15.3229 3.75704Z" fill="#9FA6B2"/>
<path id="Stroke 5 (Stroke)" fill-rule="evenodd" clip-rule="evenodd" d="M3.38302 11.4043C3.5939 11.1934 3.93581 11.1934 4.14669 11.4043L7.6761 14.9337C7.88699 15.1446 7.88699 15.4865 7.6761 15.6973C7.46522 15.9082 7.12331 15.9082 6.91243 15.6973L3.38302 12.1679C3.17213 11.957 3.17213 11.6151 3.38302 11.4043Z" fill="#9FA6B2"/>
</g>
</svg>

<svg xmlns="http://www.w3.org/2000/svg" width="18" height="19" fill="none"><g fill="#9FA6B2" fill-rule="evenodd" clip-rule="evenodd"><path d="M12.379 2.408c.44-.44 1.154-.44 1.595 0l2.698 2.698c.44.44.44 1.155 0 1.595l-8.996 8.996a.54.54 0 0 1-.306.153l-4.117.588a.54.54 0 0 1-.611-.61l.588-4.118a.54.54 0 0 1 .153-.306l8.996-8.996Zm.832.764a.048.048 0 0 0-.069 0l-8.868 8.869-.461 3.226 3.227-.46 8.868-8.87a.048.048 0 0 0 0-.067l-2.697-2.698Z"/><path d="M15.323 3.757a.54.54 0 0 1 0 .764l-7.059 7.058a.54.54 0 1 1-.764-.763l7.06-7.059a.54.54 0 0 1 .763 0ZM3.383 11.404a.54.54 0 0 1 .764 0l3.53 3.53a.54.54 0 1 1-.765.763l-3.529-3.53a.54.54 0 0 1 0-.763Z"/></g></svg>
